X: 13035
T: Finbarr Dwyer's
R: reel
M: 4/4
K: Amajor
|:"*1" EA (3cBA BAFA|EFAf ecBc|~A3 E CEAB|ceae cAAe|
cAce ae[ca]e|dfcA BAGB|~A2 EC A,CEf|1 ecBe cA A2:|2 ecBc A3 c||
|:ec ~c2 Ac ~c2|ecdc BAGB|"*2" EFGA BcdB|efed BAGB|
~A2 cA EDCE|Acec dcBA|"*3" ceae faec|dBed cA A2:|
"*1"A2 eA (3cBA FA||"*2" E2 (3FGA BcdB|~e3d BeGB||"*3" ce{f}ec dcec||

